Origami/64x64/apps/accessories-calculator.svg

<svg width="64" height="64" version="1" xmlns="http://www.w3.org/2000/svg">
 <rect x="4" y="4" width="56" height="56" rx="3" ry="3" style="opacity:.2"/>
 <path d="m60 31v25c0 1.662-1.338 3-3 3h-27v-28z" style="fill:#666666"/>
 <path d="m4 29v27c0 1.662 1.338 3 3 3h25v-30z" style="fill:#8c8c8c"/>
 <path d="m7 3c-1.662 0-3 1.338-3 3v25h30v-28z" style="fill:#a6a6a6"/>
 <path d="m57 3c1.662 0 3 1.338 3 3v25h-28v-28z" style="fill:#595959"/>
 <path d="m7 3c-1.662 0-3 1.338-3 3v1c0-1.662 1.338-3 3-3h50c1.662 0 3 1.338 3 3v-1c0-1.662-1.338-3-3-3h-50z" style="fill:#ffffff;opacity:.2"/>
 <circle cx="46" cy="47" r="16" style="opacity:.2"/>
 <circle cx="46" cy="46" r="16" style="fill:#07ce8e"/>
 <path d="m18 12v6h-6v2h6v6h2v-6h6v-2h-6v-6z" style="fill:#ebebeb"/>
 <path d="m40 18v2h12v-2z" style="fill:#ebebeb"/>
 <path d="M 12.476,39 11,40.478 16.524,46 11,51.522 12.476,53 17.999,47.476 23.522,53 25,51.522 19.475,46 25,40.478 23.522,39 17.999,44.524 Z" style="fill:#ebebeb"/>
 <path d="m40 42v2h12v-2zm0 6v2h12v-2z" style="fill:#ffffff"/>
</svg>

<svg xmlns="http://www.w3.org/2000/svg" width="64" height="64" version="1">
 <rect style="opacity:0.2" width="56" height="56" x="4" y="4" rx="3" ry="3"/>
 <path style="fill:#666666" d="M 60,31 V 56 C 60,57.662 58.662,59 57,59 H 30 V 31 Z"/>
 <path style="fill:#8c8c8c" d="M 4,29 V 56 C 4,57.662 5.338,59 7,59 H 32 V 29 Z"/>
 <path style="fill:#a6a6a6" d="M 7,3 C 5.338,3 4,4.338 4,6 V 31 H 34 V 3 Z"/>
 <path style="fill:#595959" d="M 57,3 C 58.662,3 60,4.338 60,6 V 31 H 32 V 3 Z"/>
 <path style="opacity:0.2;fill:#ffffff" d="M 7 3 C 5.338 3 4 4.338 4 6 L 4 7 C 4 5.338 5.338 4 7 4 L 57 4 C 58.662 4 60 5.338 60 7 L 60 6 C 60 4.338 58.662 3 57 3 L 7 3 z"/>
 <circle style="opacity:0.2" cx="46" cy="47" r="16"/>
 <circle style="fill:#07ce8e" cx="46" cy="46" r="16"/>
 <path style="fill:#ebebeb" d="M 18,12 V 18 H 12 V 20 H 18 V 26 H 20 V 20 H 26 V 18 H 20 V 12 Z"/>
 <path style="fill:#ebebeb" d="M 40,18 V 20 H 52 V 18 Z"/>
 <path style="fill:#ebebeb" d="M 12.476,39 11,40.478 16.524,46 11,51.522 12.476,53 17.999,47.476 23.522,53 25,51.522 19.475,46 25,40.478 23.522,39 17.999,44.524 Z"/>
 <path style="fill:#ffffff" d="M 40,42 V 44 H 52 V 42 Z M 40,48 V 50 H 52 V 48 Z"/>
</svg>
